X: 9594
T: Davy Maguire's
R: reel
M: 4/4
K: Dmajor
|fdAd ~f3a|geBe gbag|fdAd fzfe|defd e2dg|
fdAd ~f3a|gebg eg~g2|fdAd fzfe|defd e2df|
azag fgaf|efgB eg~g2|~a3g fdec|defd efdz|
abag fgaf|efgB eg~g2|azag fdec|defd efdz|
fdAd ~f3a|~g2bg eg~g2|fdAd fzfe|defd efdg|
fdAG FADA||~G2BG Eg~g2|fdAd fzfe|defd e2df|
azag fgaf|efgB eg~g2|~a3g fdec|defd efdz|
abag fgaf|efgB eg~g2|azag fdec|defd efdz|
fdAd ~f3a|~g2bg egbg|fdAd fzfe|defd efdg|
fdag fdAF|GBfd eg~g2|fdAd fzfe|defd efdf|
azag fgaf|efgB eg~g2|a2ag fdec|defd efdz|
~a3g fgaf|efgB eg~g2|azag fdec|defd efdz|
fdAd ~f3a|~g2Be ~b3g|fdAd fzfe|defd efdg|
fdAG FADA||~G2BG DGbg|fdAd fzfe|defd efdf|
azag fgaf|efgB eg~g2|a2ag fdec|defd efdz|
~a3g fgaf|ezbg eg~g2|azag fdec|defd efdz|

